x-pack/platform/plugins/shared/content_connectors/public/assets/icons/postgresql.svg

<svg width="64" height="64" viewBox="0 0 64 64" fill="none" xmlns="http://www.w3.org/2000/svg">
<g clip-path="url(#clip0_857_78972)">
<path d="M63.752 38.3239C63.3682 37.1969 62.363 36.4119 61.063 36.2235C60.45 36.1348 59.748 36.1726 58.9172 36.3387C57.4692 36.6284 56.395 36.7387 55.611 36.76C58.5702 31.9152 60.9765 26.3903 62.3617 21.1896C64.6017 12.7801 63.4047 8.9491 62.006 7.21625C58.3042 2.62958 52.9035 0.165583 46.388 0.090189C42.9122 0.0489769 39.861 0.714431 38.2692 1.19298C36.7872 0.939401 35.1937 0.797825 33.5217 0.771644C30.3875 0.723159 27.6182 1.3857 25.252 2.7474C23.942 2.31783 21.8395 1.71225 19.4115 1.32583C13.701 0.416734 9.0985 1.1251 5.732 3.43128C1.6555 6.22352 -0.234252 11.0749 0.115248 17.8507C0.226248 20.0019 1.46725 26.5474 3.42125 32.7549C4.54425 36.3229 5.74175 39.2858 6.9805 41.5622C8.73725 44.7901 10.617 46.6909 12.7272 47.3736C13.91 47.7556 16.059 48.0233 18.3192 46.1978C18.6057 46.5343 18.988 46.8686 19.4952 47.1792C20.1395 47.5731 20.9272 47.895 21.714 48.0858C24.5492 48.7731 27.205 48.6012 29.4707 47.6378C29.4847 48.0286 29.4955 48.4019 29.5045 48.7244C29.5195 49.2473 29.5345 49.76 29.5542 50.2395C29.6885 53.4817 29.916 56.0027 30.59 57.7666C30.627 57.8635 30.6767 58.0114 30.7292 58.1683C31.0655 59.1666 31.6277 60.8378 33.0582 62.1467C34.5395 63.5026 36.3312 63.9183 37.9722 63.9183C38.7952 63.9183 39.5805 63.8136 40.2692 63.6706C42.7242 63.1602 45.5125 62.383 47.5295 59.5981C49.4365 56.9653 50.3635 53 50.5312 46.752C50.553 46.5753 50.573 46.4066 50.5922 46.2458L50.6322 45.9156L51.0815 45.9539L51.1972 45.9615C53.6977 46.072 56.7552 45.5578 58.633 44.712C60.1167 44.0444 64.8715 41.6102 63.752 38.3239Z" fill="black"/>
<path d="M59.4765 38.9629C52.0415 40.4502 51.5302 38.0092 51.5302 38.0092C59.3802 26.7139 62.662 12.3762 59.8302 8.86716C52.1042 -0.704965 38.7305 3.82207 38.5072 3.9394L38.4355 3.95201C36.9665 3.65625 35.3227 3.48025 33.475 3.45091C30.111 3.39758 27.559 4.30619 25.6225 5.73019C25.6225 5.73019 1.76499 -3.80048 2.87474 17.7166C3.11074 22.2941 9.64074 52.3525 17.4292 43.2735C20.276 39.9535 23.0267 37.1464 23.0267 37.1464C24.3927 38.0264 26.0282 38.4754 27.7427 38.3142L27.876 38.2046C27.8345 38.6167 27.8535 39.0199 27.9292 39.4972C25.9227 41.671 26.5125 42.0526 22.5015 42.8533C18.4427 43.6645 20.827 45.1084 22.3837 45.4861C24.271 45.9435 28.637 46.5918 31.587 42.5872L31.4695 43.0441C32.2555 43.6548 32.8075 47.0158 32.715 50.0628C32.6225 53.1096 32.5607 55.2015 33.18 56.8354C33.7997 58.4693 34.417 62.1457 39.69 61.0502C44.0957 60.1346 46.379 57.7619 46.6967 53.8041C46.922 50.9906 47.4322 51.4066 47.4642 48.8909L47.8735 47.7001C48.3452 43.8861 47.9485 42.6555 50.6627 43.2279L51.3227 43.2841C53.3202 43.3721 55.9352 42.9724 57.47 42.2807C60.7745 40.7937 62.735 38.3106 59.4765 38.9629Z" fill="#336791"/>
<path d="M27.019 19.7636C26.349 19.6732 25.7422 19.7569 25.4352 19.9823C25.2627 20.1091 25.2092 20.256 25.1947 20.3571C25.1562 20.625 25.3497 20.9212 25.4687 21.0739C25.8052 21.5064 26.2967 21.8036 26.7832 21.8691C26.8537 21.8788 26.924 21.8832 26.9937 21.8832C27.805 21.8832 28.5427 21.2705 28.6077 20.8184C28.689 20.2521 27.8412 19.8744 27.019 19.7636ZM49.215 19.7816C49.151 19.3377 48.3365 19.2112 47.5635 19.3154C46.7915 19.4196 46.043 19.7576 46.1055 20.2024C46.1555 20.5484 46.7997 21.1389 47.5622 21.1389C47.6267 21.1389 47.6917 21.1348 47.7572 21.1258C48.2662 21.0575 48.6397 20.744 48.8172 20.5634C49.0872 20.288 49.2437 19.9811 49.215 19.7816Z" fill="white"/>
<path d="M61.9505 38.7939C61.667 37.9627 60.7545 37.6953 59.2385 37.9988C54.7372 38.8996 53.1252 38.2757 52.596 37.8977C56.0947 32.7292 58.973 26.4815 60.5257 20.6524C61.2612 17.8912 61.6675 15.3268 61.7007 13.2366C61.7375 10.9426 61.3345 9.25674 60.5035 8.22692C57.153 4.0754 52.2355 1.8485 46.283 1.7874C42.1907 1.7428 38.7332 2.75831 38.063 3.04389C36.6515 2.70353 35.1127 2.49456 33.4375 2.46789C30.3655 2.41965 27.71 3.13286 25.5115 4.58668C24.5565 4.24195 22.0885 3.42037 19.0702 2.94886C13.8522 2.13431 9.70573 2.75153 6.74673 4.78425C3.21598 7.20995 1.58598 11.5459 1.90173 17.6715C2.00798 19.7324 3.21898 26.0723 5.12998 32.1438C7.64548 40.135 10.38 44.6589 13.257 45.5896C13.5937 45.6984 13.982 45.7746 14.4102 45.7746C15.4597 45.7746 16.7465 45.3159 18.0852 43.7552C19.7181 41.8557 21.4072 40.0023 23.1505 38.1973C24.2815 38.786 25.524 39.1147 26.7947 39.1476C26.7972 39.1799 26.8005 39.2121 26.8035 39.2441C26.5847 39.4971 26.3705 39.7537 26.161 40.0138C25.2805 41.0977 25.0972 41.3234 22.263 41.8892C21.4567 42.0507 19.3155 42.4786 19.284 43.9341C19.25 45.5244 21.8152 46.1923 22.1075 46.263C23.126 46.5103 24.1072 46.6323 25.043 46.6323C27.3187 46.6323 29.3215 45.9069 30.922 44.5035C30.8727 50.1729 31.1165 55.7593 31.8185 57.4613C32.3935 58.8548 33.798 62.2601 38.2345 62.2599C38.8855 62.2599 39.602 62.1864 40.3902 62.0226C45.0205 61.0601 47.0312 59.0756 47.809 54.7006C48.2252 52.3624 48.9395 46.7792 49.2755 43.7843C49.9845 43.9988 50.8972 44.097 51.884 44.0967C53.942 44.0967 56.3167 43.6727 57.806 43.0024C59.479 42.249 62.498 40.4003 61.9505 38.7939ZM50.924 18.5564C50.9087 19.4405 50.7832 20.2432 50.6502 21.081C50.507 21.9821 50.359 22.9137 50.3217 24.0446C50.285 25.1452 50.4267 26.2895 50.5637 27.3961C50.8407 29.6313 51.125 31.9324 50.0247 34.2029C49.842 33.8889 49.6792 33.5643 49.5372 33.231C49.4005 32.9096 49.1035 32.3932 48.6922 31.6786C47.0925 28.8965 43.3462 22.3816 45.264 19.7232C45.8352 18.9319 47.285 18.1183 50.924 18.5564ZM46.513 3.57771C51.8465 3.69189 56.0655 5.62668 59.0525 9.32801C61.3435 12.167 58.8207 25.0851 51.5175 36.2296C51.444 36.139 51.3702 36.0488 51.296 35.9588L51.2035 35.8468C53.0907 32.8245 52.7217 29.8342 52.3932 27.183C52.2582 26.095 52.1307 25.0674 52.1632 24.1021C52.1967 23.079 52.3362 22.2015 52.4712 21.353C52.637 20.3074 52.8057 19.2255 52.7592 17.9501C52.794 17.8163 52.808 17.6582 52.7897 17.4706C52.671 16.2475 51.231 12.5872 48.296 9.27419C46.6905 7.46207 44.3492 5.43419 41.1525 4.06644C42.5275 3.79007 44.4077 3.53237 46.513 3.57771ZM16.6685 42.6129C15.1935 44.3326 14.175 44.0029 13.84 43.8948C11.6575 43.1889 9.12498 38.7156 6.89223 31.6223C4.96023 25.4846 3.83123 19.3127 3.74173 17.5821C3.45973 12.1086 4.82798 8.29407 7.80873 6.24413C12.6597 2.90837 20.6352 4.90498 23.84 5.91759C23.794 5.96171 23.746 6.00292 23.7005 6.04777C18.4415 11.1978 18.5662 19.9969 18.5792 20.5348C18.5787 20.7423 18.5967 21.0361 18.6212 21.4403C18.7117 22.9203 18.8802 25.6747 18.4302 28.794C18.0122 31.6926 18.9337 34.5297 20.958 36.5779C21.1657 36.7878 21.3841 36.9874 21.6122 37.1763C20.7112 38.112 18.753 40.1813 16.6685 42.6129ZM22.2882 35.3418C20.6567 33.6909 19.9157 31.3947 20.255 29.0412C20.73 25.7462 20.5547 22.8764 20.4605 21.3346C20.4472 21.1188 20.4355 20.9297 20.4287 20.7806C21.197 20.12 24.7572 18.2703 27.2962 18.8344C28.4547 19.0916 29.1607 19.8567 29.4542 21.1726C30.9732 27.9855 29.6552 30.825 28.5962 33.1069C28.378 33.577 28.1717 34.0213 27.9957 34.481L27.8592 34.8364C27.5137 35.7348 27.1922 36.5702 26.993 37.3634C25.2585 37.3586 23.5712 36.6403 22.2882 35.3418ZM22.5545 44.5297C22.048 44.407 21.5925 44.194 21.3252 44.0172C21.5485 43.9154 21.9457 43.7767 22.6347 43.639C25.969 42.9736 26.484 42.5038 27.6085 41.1193C27.8662 40.8017 28.1585 40.4419 28.5632 40.0036C29.166 39.3491 29.4422 39.4596 29.9422 39.6609C30.3475 39.8233 30.7422 40.3159 30.9022 40.858C30.978 41.114 31.063 41.5998 30.7847 41.978C28.4357 45.1673 25.0127 45.1263 22.5545 44.5297ZM40.0042 60.2756C35.9252 61.1232 34.481 59.105 33.5292 56.7978C32.915 55.3084 32.613 48.5918 32.8272 41.1743C32.83 41.0756 32.8155 40.9804 32.7875 40.8907C32.7624 40.7136 32.7243 40.5384 32.6735 40.3666C32.355 39.2873 31.5787 38.3845 30.6475 38.0102C30.2775 37.8616 29.5985 37.5889 28.7825 37.7913C28.9565 37.096 29.2582 36.3108 29.5855 35.4606L29.7227 35.103C29.8772 34.6999 30.0712 34.2822 30.2762 33.84C31.3845 31.4526 32.9022 28.1826 31.255 20.7952C30.638 18.0281 28.5775 16.6769 25.454 16.9908C23.5815 17.1787 21.8682 17.9113 21.0137 18.3314C20.83 18.4216 20.662 18.5089 20.505 18.5937C20.7435 15.8058 21.6445 10.5956 25.015 7.29916C27.1372 5.22401 29.9635 4.19904 33.407 4.25431C40.192 4.36195 44.543 7.73844 46.9985 10.5523C49.1145 12.9767 50.2602 15.4192 50.7175 16.7365C47.2787 16.3973 44.94 17.0555 43.7545 18.6992C41.1752 22.2744 45.1655 29.2136 47.0832 32.5486C47.435 33.1598 47.7385 33.688 47.834 33.9125C48.4585 35.3801 49.267 36.36 49.8572 37.0752C50.0382 37.2943 50.2137 37.5069 50.3472 37.6926C49.3057 37.9838 47.435 38.6565 47.6055 42.0192C47.468 43.7064 46.4902 51.6061 45.9935 54.3971C45.3377 58.0844 43.9385 59.4575 40.0042 60.2756ZM57.0302 41.3821C55.9652 41.8613 54.183 42.2209 52.49 42.2982C50.62 42.383 49.668 42.095 49.444 41.9178C49.339 39.8223 50.1432 39.6034 50.9945 39.3716C51.1282 39.3353 51.2587 39.2996 51.3847 39.257C51.463 39.3188 51.5487 39.3801 51.6427 39.4403C53.1457 40.4022 55.8265 40.506 59.6112 39.7484L59.6527 39.7404C59.1422 40.2032 58.2687 40.8243 57.0302 41.3821Z" fill="white"/>
</g>
<defs>
<clipPath id="clip0_857_78972">
<rect width="64" height="64" fill="white"/>
</clipPath>
</defs>
</svg>

<svg xmlns="http://www.w3.org/2000/svg" width="64" height="64" fill="none"><g clip-path="url(#a)"><path fill="#000" d="M63.752 38.324c-.384-1.127-1.389-1.912-2.689-2.1-.613-.09-1.315-.051-2.146.115-1.448.29-2.522.4-3.306.421 2.96-4.845 5.366-10.37 6.75-15.57 2.24-8.41 1.044-12.24-.355-13.974C58.304 2.63 52.904.166 46.388.09c-3.476-.041-6.527.624-8.119 1.103a31 31 0 0 0-4.747-.421c-3.134-.049-5.904.614-8.27 1.975a39 39 0 0 0-5.84-1.421C13.7.416 9.099 1.126 5.732 3.43 1.655 6.224-.234 11.075.115 17.851.226 20 1.467 26.547 3.421 32.755c1.123 3.568 2.32 6.53 3.56 8.807 1.756 3.228 3.636 5.129 5.746 5.812 1.183.382 3.332.65 5.592-1.176.287.336.669.67 1.176.981a8 8 0 0 0 2.219.907c2.835.687 5.491.515 7.757-.448.014.39.024.764.034 1.086.015.523.03 1.036.05 1.516.134 3.242.361 5.763 1.035 7.527.037.096.087.244.14.401.335.999.898 2.67 2.328 3.979 1.481 1.356 3.273 1.771 4.914 1.771.823 0 1.608-.104 2.297-.247 2.455-.51 5.244-1.288 7.26-4.073 1.907-2.633 2.834-6.598 3.002-12.846l.061-.506.04-.33.45.038.115.008c2.5.11 5.558-.404 7.436-1.25 1.484-.668 6.238-3.102 5.119-6.388"/><path fill="#336791" d="M59.477 38.963c-7.435 1.487-7.947-.954-7.947-.954 7.85-11.295 11.132-25.633 8.3-29.142-7.726-9.572-21.1-5.045-21.323-4.928l-.072.013c-1.468-.296-3.112-.472-4.96-.501-3.364-.053-5.916.855-7.853 2.28 0 0-23.857-9.531-22.747 11.986.236 4.577 6.766 34.636 14.554 25.557a141 141 0 0 1 5.598-6.128 7.4 7.4 0 0 0 4.716 1.168l.133-.11a5 5 0 0 0 .053 1.293c-2.006 2.174-1.416 2.556-5.427 3.356-4.06.811-1.675 2.255-.118 2.633 1.887.458 6.253 1.106 9.203-2.899l-.117.457c.785.61 1.337 3.972 1.245 7.019-.093 3.047-.154 5.139.465 6.772.62 1.634 1.237 5.31 6.51 4.215 4.406-.915 6.689-3.288 7.007-7.246.225-2.813.735-2.397.767-4.913l.41-1.19c.471-3.815.075-5.045 2.789-4.473l.66.056c1.997.088 4.612-.312 6.147-1.003 3.305-1.487 5.265-3.97 2.007-3.318"/><path fill="#fff" d="M27.019 19.764c-.67-.09-1.277-.007-1.584.218a.56.56 0 0 0-.24.375c-.039.268.155.564.274.717.336.432.828.73 1.314.795q.106.015.21.014c.812 0 1.55-.613 1.615-1.065.081-.566-.767-.944-1.589-1.054m22.196.018c-.064-.444-.879-.57-1.652-.467-.772.105-1.52.443-1.458.887.05.346.695.937 1.457.937q.098 0 .195-.013c.51-.069.883-.382 1.06-.563.27-.275.427-.582.398-.781"/><path fill="#fff" d="M61.95 38.794c-.283-.831-1.196-1.099-2.712-.795-4.5.9-6.113.277-6.642-.101 3.499-5.169 6.377-11.417 7.93-17.246.735-2.76 1.141-5.325 1.175-7.415.036-2.294-.367-3.98-1.197-5.01-3.351-4.152-8.268-6.379-14.221-6.44-4.092-.044-7.55.971-8.22 1.257-1.412-.34-2.95-.55-4.626-.576-3.071-.048-5.727.665-7.925 2.119a36.3 36.3 0 0 0-6.442-1.638c-5.218-.815-9.364-.197-12.323 1.835-3.531 2.426-5.161 6.762-4.845 12.888.106 2.06 1.317 8.4 3.228 14.472 2.515 7.991 5.25 12.515 8.127 13.446.337.108.725.185 1.153.185 1.05 0 2.337-.46 3.675-2.02q2.45-2.85 5.066-5.558a8.36 8.36 0 0 0 3.644.95l.008.097q-.328.38-.642.77c-.88 1.084-1.064 1.31-3.898 1.875-.806.162-2.948.59-2.979 2.045-.034 1.59 2.531 2.258 2.824 2.329 1.018.247 2 .37 2.935.37 2.276 0 4.279-.726 5.879-2.13-.05 5.67.194 11.256.896 12.958.576 1.394 1.98 4.8 6.416 4.799.651 0 1.368-.074 2.156-.237 4.63-.963 6.641-2.947 7.419-7.322.416-2.339 1.13-7.922 1.467-10.917.708.215 1.621.313 2.608.313 2.058 0 4.433-.424 5.922-1.095 1.673-.753 4.692-2.602 4.145-4.208M50.924 18.556c-.015.884-.14 1.687-.274 2.525-.143.901-.291 1.833-.328 2.964-.037 1.1.105 2.244.242 3.351.277 2.235.561 4.536-.54 6.807a9 9 0 0 1-.487-.972c-.136-.321-.434-.838-.845-1.552-1.6-2.782-5.346-9.297-3.428-11.956.571-.791 2.021-1.605 5.66-1.167M46.513 3.578c5.334.114 9.553 2.049 12.54 5.75 2.29 2.839-.232 15.757-7.535 26.902l-.222-.271-.093-.112c1.888-3.023 1.519-6.013 1.19-8.664-.135-1.088-.262-2.116-.23-3.08.034-1.024.173-1.902.308-2.75.166-1.046.335-2.128.288-3.403.035-.134.049-.292.03-.48-.118-1.223-1.558-4.883-4.493-8.196-1.605-1.812-3.947-3.84-7.143-5.208a24.8 24.8 0 0 1 5.36-.488M16.669 42.613c-1.476 1.72-2.494 1.39-2.829 1.282-2.182-.706-4.715-5.18-6.948-12.273-1.932-6.137-3.06-12.31-3.15-14.04C3.46 12.11 4.828 8.294 7.809 6.244c4.85-3.336 12.826-1.339 16.031-.326q-.07.064-.14.13c-5.258 5.15-5.134 13.949-5.12 14.487-.001.207.017.501.041.905.09 1.48.26 4.235-.19 7.354-.419 2.899.503 5.736 2.527 7.784q.312.316.654.598c-.9.936-2.859 3.005-4.943 5.437m5.62-7.271c-1.632-1.651-2.373-3.947-2.034-6.3.475-3.296.3-6.166.206-7.707-.014-.216-.025-.405-.032-.554.768-.661 4.328-2.51 6.867-1.947 1.159.258 1.865 1.023 2.158 2.339 1.52 6.813.201 9.652-.858 11.934-.218.47-.424.914-.6 1.374l-.137.355c-.345.899-.667 1.734-.866 2.527-1.734-.004-3.422-.723-4.705-2.021m.265 9.188a4.1 4.1 0 0 1-1.229-.513c.224-.102.62-.24 1.31-.378 3.334-.665 3.849-1.135 4.973-2.52.258-.317.55-.677.955-1.115.603-.655.88-.544 1.38-.343.404.162.8.655.96 1.197.075.256.16.742-.118 1.12-2.35 3.19-5.772 3.148-8.23 2.552m17.45 15.746c-4.079.847-5.523-1.171-6.475-3.478-.614-1.49-.916-8.206-.702-15.624a.9.9 0 0 0-.04-.283 4 4 0 0 0-.114-.524c-.318-1.08-1.094-1.982-2.026-2.357-.37-.148-1.048-.421-1.864-.219.173-.695.475-1.48.802-2.33l.138-.358c.154-.403.348-.82.553-1.263 1.108-2.387 2.626-5.657.979-13.045-.617-2.767-2.677-4.118-5.801-3.804-1.873.188-3.586.92-4.44 1.34q-.275.135-.509.263c.239-2.788 1.14-7.998 4.51-11.295 2.122-2.075 4.948-3.1 8.392-3.045 6.785.108 11.136 3.484 13.592 6.298 2.115 2.425 3.261 4.867 3.718 6.185-3.438-.34-5.777.319-6.962 1.962-2.58 3.575 1.41 10.515 3.328 13.85.352.61.656 1.139.751 1.364.624 1.467 1.433 2.447 2.023 3.162.181.22.357.432.49.618-1.041.29-2.912.964-2.742 4.326-.137 1.687-1.115 9.587-1.611 12.378-.656 3.687-2.056 5.06-5.99 5.879M57.03 41.382c-1.065.48-2.847.839-4.54.916-1.87.085-2.822-.203-3.046-.38-.105-2.096.7-2.315 1.55-2.546.134-.037.265-.072.39-.115q.118.093.259.183c1.503.962 4.184 1.066 7.968.308l.042-.008c-.51.463-1.384 1.084-2.623 1.642"/></g><defs><clipPath id="a"><path fill="#fff" d="M0 0h64v64H0z"/></clipPath></defs></svg>
